X:418
T:Alec Dan MacIsaac's
R:Strathspey
S:Jerry Holland's collection of fiddle tunes
B:Jerry Holland's collection of fiddle tunes
Z:Transcription, chords:Mike Long
M:4/4
L:1/8
K:C
G/2|\
"Am"A>A A<B "G"G>G G<B|"Am"A>B~c>A "G"d/2c/2B/2A/2 G>B|\
"Am"A>A A<B "G"G>A B<d|"C"~c>A "G"B<G A>G "Em"E3/2:|
a/2|\
"C"~g>e e<g "G"e>d B<g|"Em"e>de>g "Am"a>b ~a<e|\
"C"g<ee<g "G"G>A B<d|"Am"~c>AB>G "Em"A>GE3/2||
a/2|\
"C"~g>e e<g "G"e>d B<g|"Em"e>de>g "Am"a>b ~a<e|\
"G"g<be<g G>A B<d|"Am"~c>A"G"~B>G A>G "Em"E3/2|]
